!!!OTL: Der grausame Bruder Herr Ake han rider pa sin kaera moders gard' uti rymden,
!!!ARE: Nordeuropa, Sverige
!!!YOR: 3, S. 260
!!    1883 gedruckt
!!!SCT: Q3068O
!!!YEM: Copyright 1995, estate of Helmut Schaffrath.
**kern
*ICvox
*Ivox
*M4/4
*k[b-]
*d:
{8d
=1
4d
8d
8d
8a
8a
8a
8b-
=2
8ccn
8b-
8a
8g
4fn
8g
8a
=3
4b-
4a
4.r}
{8ccn
=4
8ccn
8dd
8ccn
8b-
4a
8e
8fn
=5
8a
8g
8fn
8e
4d
8r}
{8cn
=6
4fn
8a
8b-
8a
8g
8fn
8e
=7
4e
4d
4.r}
==
!!!AGN: ???
!! Melodievergleich zu Q0068J, anderes Lied "Herr Ake" .
!!!ONB: ESAC (Essen Associative Code) Database: BALLADE
!!!AMT: simple quadruple
!!!AIN: vox
!!!EED: Helmut Schaffrath
!!!EEV: 1.0
*-
